X:1
T:Mignonette. TWC.255, La
T:Mignonette. TWC.255, La
T:Captain Lano's Quick March,aka. TWC.255
T:Old French
C:Old French
L:1/8
Q:1/4=100
M:6/8
K:F
V:1 treble 
V:1
 F | A2 A AGF | c2 c c2 f | c2 a c2 B | A3 G2 F | A2 A AGF | c2 c c2 f | edc Gc=B | c3 c2 || e | %10
 g2 c b2 a | g2 f e2 f | g2 c b2 a | gfe fc_e | dbd B2 B | cac A2 A | B2 G F2 E | F2 F F2 || A | %19
 A3 GFG | F2 F F2 c | c3 BAB | A2 A A2 f | f2 e e2 d | d2 c c2 B | ABc cBA | G3 G2 || c | %28
 _e2 e ecA | B2 B B2 d | f2 f fd=B | c2 c c2 a | b2 a g2 f | b2 a g2 f | dba gfe | f2 f f2 |] %36

